X: 672
T: Within a Mile of Clonbur   #2
R: reel
%S: s:2 b:12(6+6)
B: Francis O'Neill: "The Dance Music of Ireland" (1907) #672
Z: Frank Nordberg - http://www.musicaviva.com
F: http://www.musicaviva.com/abc/tunes/ireland/oneill-1001/0672/oneill-1001-0672-1.abc
%m: Tn = (3n/o/n/
M: C|
L: 1/8
K: D
"^A"\
|: Bddg egdg | egdB (TBA)A2 |\
[1 Bddg edgd | BdAc (TBG)Gz :|\
[2 bgaf gedc | BdAc (BG)G2 |]
"^B"\
|: (3(efg) (dg) agbg | (3(efg) (dg) eaa2 |\
[1 (3(efg) dg agbg | edef agg2 :|\
[2 bgaf gedc | BdAc (BG)G2 |]
